icons/barchart.svg

<svg xmlns="http://www.w3.org/2000/svg" viewBox="0 0 24 24" fill="currentColor">
  <path d="M10.3053 4.80533c-.0154.01542-.0553.06511-.0553.19467v14.25h3.5V5c0-.12956-.0399-.17925-.0553-.19467-.0154-.01542-.0651-.05533-.1947-.05533h-3c-.1296 0-.1793.03991-.1947.05533ZM15.25 6.25V5c0-.47044-.1601-.92075-.4947-1.25533C14.4207 3.41009 13.9704 3.25 13.5 3.25h-3c-.4704 0-.92075.16009-1.25533.49467C8.91009 4.07925 8.75 4.52956 8.75 5v5.25H5.5c-.47044 0-.92075.1601-1.25533.4947C3.91009 11.0793 3.75 11.5296 3.75 12v7.25H2.5c-.41421 0-.75.3358-.75.75s.33579.75.75.75h19c.4142 0 .75-.3358.75-.75s-.3358-.75-.75-.75h-1.25V8c0-.47044-.1601-.92075-.4947-1.25533C19.4207 6.41009 18.9704 6.25 18.5 6.25h-3.25Zm0 1.5v11.5h3.5V8c0-.12956-.0399-.17925-.0553-.19467-.0154-.01542-.0651-.05533-.1947-.05533h-3.25Zm-9.75 4h3.25v7.5h-3.5V12c0-.1296.03991-.1793.05533-.1947.01542-.0154.06511-.0553.19467-.0553Z"/>
</svg>

<svg width="24" height="24" viewBox="0 0 24 24" fill="none" xmlns="http://www.w3.org/2000/svg">
<path fill-rule="evenodd" clip-rule="evenodd" d="M10.3053 4.80533C10.2899 4.82075 10.25 4.87044 10.25 5V10.25V19.25H13.75V6.25V5C13.75 4.87044 13.7101 4.82075 13.6947 4.80533C13.6793 4.78991 13.6296 4.75 13.5 4.75H10.5C10.3704 4.75 10.3207 4.78991 10.3053 4.80533ZM15.25 6.25V5C15.25 4.52956 15.0899 4.07925 14.7553 3.74467C14.4207 3.41009 13.9704 3.25 13.5 3.25H10.5C10.0296 3.25 9.57925 3.41009 9.24467 3.74467C8.91009 4.07925 8.75 4.52956 8.75 5V10.25H5.5C5.02956 10.25 4.57925 10.4101 4.24467 10.7447C3.91009 11.0793 3.75 11.5296 3.75 12V19.25H2.5C2.08579 19.25 1.75 19.5858 1.75 20C1.75 20.4142 2.08579 20.75 2.5 20.75H3.75H8.75H10.25H13.75H15.25H20.25H21.5C21.9142 20.75 22.25 20.4142 22.25 20C22.25 19.5858 21.9142 19.25 21.5 19.25H20.25V8C20.25 7.52956 20.0899 7.07925 19.7553 6.74467C19.4207 6.41009 18.9704 6.25 18.5 6.25H15.25ZM15.25 7.75V19.25H18.75V8C18.75 7.87044 18.7101 7.82075 18.6947 7.80533C18.6793 7.78991 18.6296 7.75 18.5 7.75H15.25ZM5.5 11.75H8.75V19.25H5.25V12C5.25 11.8704 5.28991 11.8207 5.30533 11.8053C5.32075 11.7899 5.37044 11.75 5.5 11.75Z" fill="black"/>
</svg>
